assets/img/calendar.svg

<svg width="22" height="22" viewBox="0 0 22 22" fill="none" xmlns="http://www.w3.org/2000/svg">
<path fill-rule="evenodd" clip-rule="evenodd" d="M18.9441 9.0791H2.60547C2.22597 9.0791 1.91797 8.7711 1.91797 8.3916C1.91797 8.0121 2.22597 7.7041 2.60547 7.7041H18.9441C19.3236 7.7041 19.6316 8.0121 19.6316 8.3916C19.6316 8.7711 19.3236 9.0791 18.9441 9.0791Z" fill="#130F26"/>
<path fill-rule="evenodd" clip-rule="evenodd" d="M14.8511 12.6589C14.4716 12.6589 14.1599 12.3509 14.1599 11.9714C14.1599 11.5919 14.4633 11.2839 14.8428 11.2839H14.8511C15.2306 11.2839 15.5386 11.5919 15.5386 11.9714C15.5386 12.3509 15.2306 12.6589 14.8511 12.6589Z" fill="#130F26"/>
<path fill-rule="evenodd" clip-rule="evenodd" d="M10.7832 12.6589C10.4037 12.6589 10.092 12.3509 10.092 11.9714C10.092 11.5919 10.3955 11.2839 10.775 11.2839H10.7832C11.1627 11.2839 11.4707 11.5919 11.4707 11.9714C11.4707 12.3509 11.1627 12.6589 10.7832 12.6589Z" fill="#130F26"/>
<path fill-rule="evenodd" clip-rule="evenodd" d="M6.70698 12.6589C6.32748 12.6589 6.01489 12.3509 6.01489 11.9714C6.01489 11.5919 6.31923 11.2839 6.69873 11.2839H6.70698C7.08648 11.2839 7.39448 11.5919 7.39448 11.9714C7.39448 12.3509 7.08648 12.6589 6.70698 12.6589Z" fill="#130F26"/>
<path fill-rule="evenodd" clip-rule="evenodd" d="M14.8511 16.2217C14.4716 16.2217 14.1599 15.9137 14.1599 15.5342C14.1599 15.1547 14.4633 14.8467 14.8428 14.8467H14.8511C15.2306 14.8467 15.5386 15.1547 15.5386 15.5342C15.5386 15.9137 15.2306 16.2217 14.8511 16.2217Z" fill="#130F26"/>
<path fill-rule="evenodd" clip-rule="evenodd" d="M10.7832 16.2217C10.4037 16.2217 10.092 15.9137 10.092 15.5342C10.092 15.1547 10.3955 14.8467 10.775 14.8467H10.7832C11.1627 14.8467 11.4707 15.1547 11.4707 15.5342C11.4707 15.9137 11.1627 16.2217 10.7832 16.2217Z" fill="#130F26"/>
<path fill-rule="evenodd" clip-rule="evenodd" d="M6.70698 16.2217C6.32748 16.2217 6.01489 15.9137 6.01489 15.5342C6.01489 15.1547 6.31923 14.8467 6.69873 14.8467H6.70698C7.08648 14.8467 7.39448 15.1547 7.39448 15.5342C7.39448 15.9137 7.08648 16.2217 6.70698 16.2217Z" fill="#130F26"/>
<path fill-rule="evenodd" clip-rule="evenodd" d="M14.4773 5.3085C14.0978 5.3085 13.7898 5.0005 13.7898 4.621V1.60425C13.7898 1.22475 14.0978 0.916748 14.4773 0.916748C14.8568 0.916748 15.1648 1.22475 15.1648 1.60425V4.621C15.1648 5.0005 14.8568 5.3085 14.4773 5.3085Z" fill="#130F26"/>
<path fill-rule="evenodd" clip-rule="evenodd" d="M7.07227 5.3085C6.69277 5.3085 6.38477 5.0005 6.38477 4.621V1.60425C6.38477 1.22475 6.69277 0.916748 7.07227 0.916748C7.45177 0.916748 7.75977 1.22475 7.75977 1.60425V4.621C7.75977 5.0005 7.45177 5.3085 7.07227 5.3085Z" fill="#130F26"/>
<mask id="mask0_1211_1408" style="mask-type:luminance" maskUnits="userSpaceOnUse" x="1" y="2" width="19" height="19">
<path fill-rule="evenodd" clip-rule="evenodd" d="M1.83325 2.36426H19.7083V20.6251H1.83325V2.36426Z" fill="white"/>
</mask>
<g mask="url(#mask0_1211_1408)">
<path fill-rule="evenodd" clip-rule="evenodd" d="M6.89417 3.73926C4.51725 3.73926 3.20825 5.00701 3.20825 7.30876V15.6037C3.20825 17.9558 4.51725 19.2502 6.89417 19.2502H14.6473C17.0243 19.2502 18.3333 17.9797 18.3333 15.6733V7.30876C18.3369 6.17667 18.0326 5.29667 17.4285 4.69167C16.807 4.06834 15.8491 3.73926 14.6556 3.73926H6.89417ZM14.6473 20.6252H6.89417C3.77292 20.6252 1.83325 18.7011 1.83325 15.6037V7.30876C1.83325 4.25809 3.77292 2.36426 6.89417 2.36426H14.6556C16.2222 2.36426 17.5174 2.83359 18.402 3.72001C19.2609 4.58259 19.7128 5.82284 19.7083 7.31059V15.6733C19.7083 18.7277 17.7686 20.6252 14.6473 20.6252Z" fill="#130F26"/>
</g>
</svg>

<svg xmlns="http://www.w3.org/2000/svg" width="22" height="22" fill="none"><path fill="#130F26" fill-rule="evenodd" d="M18.944 9.08H2.605a.688.688 0 0 1 0-1.376h16.34a.688.688 0 0 1 0 1.375M14.851 12.659a.69.69 0 0 1-.691-.688c0-.38.303-.687.683-.687h.008a.688.688 0 0 1 0 1.375M10.783 12.659a.69.69 0 0 1-.691-.688c0-.38.303-.687.683-.687h.008a.688.688 0 0 1 0 1.375M6.707 12.659a.69.69 0 0 1-.692-.688c0-.38.304-.687.684-.687h.008a.688.688 0 0 1 0 1.375M14.851 16.222a.69.69 0 0 1-.691-.688c0-.38.303-.687.683-.687h.008a.688.688 0 0 1 0 1.375M10.783 16.222a.69.69 0 0 1-.691-.688c0-.38.303-.687.683-.687h.008a.688.688 0 0 1 0 1.375M6.707 16.222a.69.69 0 0 1-.692-.688c0-.38.304-.687.684-.687h.008a.688.688 0 0 1 0 1.375M14.477 5.309a.69.69 0 0 1-.687-.688V1.604a.688.688 0 0 1 1.375 0v3.017c0 .38-.308.688-.688.688M7.072 5.309a.69.69 0 0 1-.687-.688V1.604a.688.688 0 0 1 1.375 0v3.017c0 .38-.308.688-.688.688" clip-rule="evenodd"/><mask id="a" width="19" height="19" x="1" y="2" maskUnits="userSpaceOnUse" style="mask-type:luminance"><path fill="#fff" fill-rule="evenodd" d="M1.833 2.364h17.875v18.261H1.833z" clip-rule="evenodd"/></mask><g mask="url(#a)"><path fill="#130F26" fill-rule="evenodd" d="M6.894 3.74c-2.377 0-3.686 1.267-3.686 3.569v8.295c0 2.352 1.31 3.646 3.686 3.646h7.753c2.377 0 3.686-1.27 3.686-3.577V7.31c.004-1.132-.3-2.012-.904-2.617-.622-.624-1.58-.953-2.773-.953zm7.753 16.885H6.894c-3.121 0-5.06-1.924-5.06-5.021V7.309c0-3.05 1.939-4.945 5.06-4.945h7.762c1.566 0 2.861.47 3.746 1.356.859.863 1.31 2.103 1.306 3.59v8.363c0 3.055-1.94 4.952-5.06 4.952" clip-rule="evenodd"/></g></svg>
